X: 6367
T: Cashmere Shawl, The
R: reel
M: 4/4
K: Aminor
A3B AGEG|A3B c2Bc|A3B AGEG|1 gedB c2Bc:|2 gedB cBcd||
e2~e2 edcd|(3ege ce d2cd|~e3g edcd|efge d2cd|
e2~e2 edcd|egec d2cd|ea~a2 egge|d3f eccd|
ecgc edcd|(3ege ce d2cd|ecgc edcd|efge d2cd|
ecgc edcd|egec d2cd|ea~a3 egge|dAeG fedc||

